!!!COM:	Bach, Johann Sebastian
!!!CDT:	1685/02/21/-1750/07/28/
!!!OTL@@DE:	Herr, ich dank an jene Zeit
!!!SCT:	BWV 329
!!!PC#:	212
!!!AGN:	chorale
**kern	**kern	**kern	**kern
*ICvox	*ICvox	*ICvox	*ICvox
*Ibass	*Itenor	*Ialto	*Isoprn
*I"Bass	*I"Tenor	*I"Alto	*I"Soprano
*clefF4	*clefGv2	*clefG2	*clefG2
*k[b-e-a-]	*k[b-e-a-]	*k[b-e-a-]	*k[b-e-a-]
*E-:	*E-:	*E-:	*E-:
*M4/4	*M4/4	*M4/4	*M4/4
*met(c)	*met(c)	*met(c)	*met(c)
*MM100	*MM100	*MM100	*MM100
=1-	=1-	=1-	=1-
4.E-	4G	4B-	4e-
.	8GL	4B-	4e-
8F	8A-J	.	.
4G	8B-	4e-	4b-
.	4e-	.	.
4E-	.	8gL	4b-
.	8d-	8fJ	.
=2	=2	=2	=2
8A-L	8cL	4e-	4cc
8GJ	8B-J	.	.
4F	4A-	4f	4ddnX
2E-;	2B-;	2g;	2ee-;
=3	=3	=3	=3
8B-L	4B-	4f	4.dd
8A-J	.	.	.
4G	4B-	[4b-	.
.	.	.	8ee-
4D	4B-	8b-L]	4ff
.	.	8a-J	.
8E-L	[4B-	[4g	4b-
8DJ	.	.	.
=4	=4	=4	=4
8CL	8B-L]	8gL]	4ee-
8FJ	8AJ	8fJ	.
8BB-L	2B-	4f	4dd
8DJ	.	.	.
8E-L	.	4g	2cc
8CJ	.	.	.
4F	4A	8fL	.
.	.	8e-J	.
=5	=5	=5	=5
2BB-;	2F;	2d;	2b-;
8EE-L	4B-	4g	4ee-
8FF	.	.	.
8GG	8B-L	4g	4ee-
8AA-XJ	8cJ	.	.
=6	=6	=6	=6
8BB-L	[4d	4f	4b-
8C	.	.	.
8D	8dL]	8fL	4b-
8E-J	8cJ	[8gJ	.
8FL	4c	8gL]	4a-
8E-	.	8cJ	.
8D	4B-	8fL	4a-
8BB-J	.	16e-L	.
.	.	16dJJ	.
=7	=7	=7	=7
2E-;	2B-;	2e-;	2g;
8B-L	8dL	4f	4b-
8A-	8cJ	.	.
8G	4B-	4e-	4b-
8FJ	.	.	.
=8	=8	=8	=8
8E-L	4B-	[4f	4a-
8DJ	.	.	.
4E-	4B-	8fL]	4g
.	.	8e-J	.
4AA-	8cL	4e-	2f
.	8F	.	.
4BB-	8B-	4d	.
.	8A-J	.	.
=9	=9	=9	=9
2EE-;	2G;	2B-;	2e-;
8B-L	4.B-	4d	4f
8A-	.	.	.
8G	.	4d	4f
8FJ	8A-	.	.
=10	=10	=10	=10
4E-	8B-L	4e-	8gL
.	8cJ	.	8aJ
8DL	4d	8fL	4b-
8E-J	.	8gJ	.
2F	8cL	4f	4b-
.	8dJ	.	.
.	4e-	4f	4a
=11	=11	=11	=11
2BB-;	2d;	2f;	2b-;
4A-X	8cL	8fL	4cc
.	8fJ	[8a-XJ	.
4BB	4d	8a-L]	4dd
.	.	8gJ	.
=12	=12	=12	=12
2C;	2c;	2g;	2ee-;
4D	[4f	8fL	4b-
.	.	[8a-J	.
4E-	8fL]	8a-L]	4b-
.	[8e-J	8gJ	.
=13	=13	=13	=13
4F	8e-L]	4.f	4a-
.	16dL	.	.
.	16cJJ	.	.
4G	4B-	.	4g
.	.	[8e-	.
4A-	4c	8e-L]	2f
.	.	16dL	.
.	.	16cJJ	.
8B-L	8B-L	4d	.
8BB-J	8A-J	.	.
=14	=14	=14	=14
1E-;	1G;	1B-;	1e-;
==	==	==	==
*-	*-	*-	*-
!!!hum2abc: -Q ''
!!!title: @{PC#}. @{OTL@@DE}
!!!YOR1: 371 vierstimmige Choralges&auml;nge von Johann Sebastian Bach, 
!!!YOR2: 4th ed. by Alfred D&ouml;rffel (Leipzig: Breitkopf und H&auml;rtel, 
!!!YOR2: c.1875). 178 pp. Plate "V.A.10".  reprint: J.S. Bach, 371 Four-Part 
!!!YOR4: Chorales (New York: Associated Music Publishers, Inc., c.1940).
!!!SMS: B&H, 4th ed, Alfred D&ouml;rffel, c.1875, plate V.A.10
!!!EED:  Craig Stuart Sapp
!!!EEV:  2009/05/22
